T: Dancin' With My Sweetie
M: 4/4
L: 1/8
K: Dmaj
~ | e>^de>g B>e^d>=d | ~ to simply ~ | e>^de>g B>ed>=d | ~~ | E^DEG Be^d=d | ~ to simply ~ | E^DEG Bed=d | ~~ | E>^DE>G B,>E^D>=D | ~ to simply ~ | E>^DE>G B,>ED>=D | ~~ | f^efg fedf | ~ to ~ | f^efg f=edf | ~
